X: 34595
T: River Bend
R: jig
M: 6/8
K: Amixolydian
gf|"A"{ef}e2 A "D"{fe}f2 d|"A"ecA Ace|"G"{gf}g2 d {Bd}BAB|GBd gdB|
"A"{ef}e2 A "D"{fe}f2 d|"A"ecA Ace|"G"{gf}g2 e "D"dcd|"A"ecA A:|
|:ce|"A"aba {b}aec|Ace agf|"G"gag gdB|GBd g
[1 fg|"A"aba {b}aec|Ace agf|"G"{gf}g2 e "D"dcd|"A"ecA A:|
[2 dB|"C"=cBc "D"d^cd|"A"efg agf|"G"{gf}g2 e "D"dcd|"A"ecA A||

